img/main/in__icon.svg

<svg width="36" height="36" viewBox="0 0 36 36" fill="none" xmlns="http://www.w3.org/2000/svg">
<g id="008-linkedin" clip-path="url(#clip0_549_26290)">
<g id="Layer 2">
<g id="10.linkedin">
<path id="background" d="M18 36C27.9411 36 36 27.9411 36 18C36 8.05888 27.9411 0 18 0C8.05888 0 0 8.05888 0 18C0 27.9411 8.05888 36 18 36Z" fill="#0B69C7"/>
<g id="icon">
<path id="Vector" d="M13.9735 11.4561C13.974 11.9425 13.8301 12.4181 13.5602 12.8228C13.2902 13.2274 12.9063 13.5429 12.457 13.7293C12.0076 13.9156 11.5131 13.9645 11.036 13.8697C10.5589 13.7749 10.1207 13.5407 9.7767 13.1968C9.43274 12.8528 9.19855 12.4146 9.10376 11.9375C9.00898 11.4603 9.05787 10.9658 9.24423 10.5165C9.4306 10.0672 9.74607 9.68329 10.1507 9.41333C10.5554 9.14338 11.031 8.99953 11.5174 9C12.1686 9.00063 12.793 9.25959 13.2534 9.72005C13.7139 10.1805 13.9729 10.8049 13.9735 11.4561Z" fill="white"/>
<path id="Vector_2" d="M12.8102 14.9375H10.2239C9.88775 14.9375 9.61523 15.21 9.61523 15.5462V26.3912C9.61523 26.7274 9.88775 26.9999 10.2239 26.9999H12.8102C13.1464 26.9999 13.4189 26.7274 13.4189 26.3912V15.5462C13.4189 15.21 13.1464 14.9375 12.8102 14.9375Z" fill="white"/>
<path id="Vector_3" d="M26.9398 21.19V26.4408C26.9398 26.5891 26.8809 26.7312 26.7761 26.8361C26.6713 26.9409 26.5291 26.9998 26.3809 26.9998H23.6051C23.4568 26.9998 23.3147 26.9409 23.2098 26.8361C23.105 26.7312 23.0461 26.5891 23.0461 26.4408V21.3535C23.0461 20.5932 23.2664 18.0377 21.0614 18.0377C19.3514 18.0377 19.0032 19.795 18.9298 20.5837V26.4527C18.9267 26.598 18.8671 26.7365 18.7637 26.8386C18.6602 26.9408 18.521 26.9986 18.3756 26.9998H15.6898C15.6163 27.0001 15.5435 26.9858 15.4755 26.9579C15.4076 26.9299 15.3458 26.8887 15.2939 26.8368C15.2419 26.7848 15.2008 26.723 15.1728 26.6551C15.1448 26.5871 15.1306 26.5143 15.1309 26.4408V15.4987C15.1306 15.4251 15.1448 15.3522 15.1727 15.2841C15.2007 15.216 15.2418 15.1541 15.2937 15.1019C15.3457 15.0498 15.4074 15.0084 15.4754 14.9802C15.5433 14.9519 15.6162 14.9374 15.6898 14.9374H18.3756C18.4501 14.9361 18.5241 14.9497 18.5933 14.9774C18.6625 15.005 18.7255 15.0462 18.7787 15.0984C18.8318 15.1507 18.874 15.213 18.9028 15.2817C18.9316 15.3504 18.9464 15.4242 18.9464 15.4987V16.4461C19.5811 15.4987 20.5238 14.7598 22.5298 14.7598C26.9659 14.7574 26.9398 18.9092 26.9398 21.19Z" fill="white"/>
</g>
</g>
</g>
</g>
<defs>
<clipPath id="clip0_549_26290">
<rect width="36" height="36" fill="white"/>
</clipPath>
</defs>
</svg>

<svg xmlns="http://www.w3.org/2000/svg" width="36" height="36" fill="none"><g clip-path="url(#a)"><path fill="#0B69C7" d="M18 36c9.941 0 18-8.059 18-18S27.941 0 18 0 0 8.059 0 18s8.059 18 18 18Z"/><g fill="#fff"><path d="M13.973 11.456a2.459 2.459 0 1 1-4.917.005 2.459 2.459 0 0 1 4.918-.005ZM12.81 14.938h-2.586a.609.609 0 0 0-.609.608v10.845c0 .336.273.609.609.609h2.586a.609.609 0 0 0 .609-.609V15.546a.609.609 0 0 0-.609-.608ZM26.94 21.19v5.25a.56.56 0 0 1-.56.56h-2.775a.56.56 0 0 1-.559-.56v-5.087c0-.76.22-3.315-1.985-3.315-1.71 0-2.058 1.757-2.131 2.546v5.869a.56.56 0 0 1-.554.547H15.69a.559.559 0 0 1-.56-.56V15.5a.56.56 0 0 1 .56-.562h2.686a.56.56 0 0 1 .57.562v.947c.635-.947 1.578-1.686 3.584-1.686 4.436-.003 4.41 4.15 4.41 6.43Z"/></g></g><defs><clipPath id="a"><path fill="#fff" d="M0 0h36v36H0z"/></clipPath></defs></svg>
